X: 3914
T: Blackberry Quadrille, The
R: jig
M: 6/8
K: Dmajor
a2a ba^g|a2f d2f|e2c Afg|fdB Afg|
a2a ba^g|a2f d2f|e2c ABc|1 dfe d3:|2 dfe d||
|:FG|A2B G2A|F2A def|g2e c2e|dfe dcB|
A2B G2A|F2A def|g2e ABc|1 d2f d:|2 d2f d3||

